documentation/public/assets/images/empty-state-dos-and-donts-02.svg

<svg width="240" height="158" viewBox="0 0 240 158" fill="none" xmlns="http://www.w3.org/2000/svg">
<rect y="0.911621" width="240" height="156.176" fill="#F0F6FE"/>
<rect y="0.911621" width="240" height="10.5882" fill="#102DA3"/>
<rect x="9.70605" y="20.3232" width="68.8235" height="41.4706" rx="2" fill="white"/>
<rect x="9.70605" y="70.6177" width="220.588" height="53.8235" rx="2" fill="white"/>
<rect x="108.529" y="97.0879" width="22.9412" height="1.76471" rx="0.882353" fill="#545454"/>
<rect x="82.0586" y="103.265" width="75.8824" height="1.76471" rx="0.882353" fill="#AFAFAF"/>
<rect x="95.2939" y="109.441" width="49.4118" height="6.17647" rx="2" fill="#0F67F5"/>
<rect width="26.4706" height="0.882353" rx="0.441176" transform="matrix(1 0 0 -1 106.765 112.97)" fill="white"/>
<path d="M9.70605 131.735C9.70605 130.631 10.6015 129.735 11.7061 129.735H228.294C229.399 129.735 230.294 130.631 230.294 131.735V157.088H9.70605V131.735Z" fill="white"/>
<rect x="85.5879" y="20.3232" width="68.8235" height="41.4706" rx="2" fill="white"/>
<rect x="161.471" y="20.3232" width="68.8235" height="41.4706" rx="2" fill="white"/>
<rect x="170.294" y="44.147" width="49.4118" height="6.17647" rx="2" fill="#0F67F5"/>
<rect width="26.4706" height="0.882353" rx="0.441176" transform="matrix(1 0 0 -1 181.765 47.6763)" fill="white"/>
<rect x="32.6475" y="28.2646" width="22.9412" height="1.76471" rx="0.882353" fill="#545454"/>
<rect x="94.4121" y="29.147" width="22.9412" height="1.76471" rx="0.882353" fill="#545454"/>
<rect x="170.294" y="29.147" width="22.9412" height="1.76471" rx="0.882353" fill="#545454"/>
<rect x="19.4121" y="36.2056" width="49.4118" height="1.76471" rx="0.882353" fill="#AFAFAF"/>
<rect x="94.4121" y="37.0879" width="49.4118" height="1.76471" rx="0.882353" fill="#AFAFAF"/>
<rect x="170.294" y="37.0879" width="49.4118" height="1.76471" rx="0.882353" fill="#AFAFAF"/>
<rect x="94.4121" y="49.4409" width="49.4118" height="1.76471" rx="0.882353" fill="#AFAFAF"/>
<rect x="29.1172" y="42.3823" width="29.1176" height="1.76471" rx="0.882353" fill="#AFAFAF"/>
<rect x="94.4121" y="43.2646" width="29.1176" height="1.76471" rx="0.882353" fill="#AFAFAF"/>
<rect x="19.4121" y="49.4409" width="49.4118" height="6.17647" rx="2" fill="#0F67F5"/>
<rect width="26.4706" height="0.882353" rx="0.441176" transform="matrix(1 0 0 -1 30.8828 52.9702)" fill="white"/>
<path d="M131.47 79.4409H108.529V92.68H131.47V79.4409Z" fill="#F6F6F6"/>
<path fill-rule="evenodd" clip-rule="evenodd" d="M108.529 79.4409H131.698V92.68H108.529V79.4409ZM109.081 92.1284H131.146V79.9925H109.081V92.1284Z" fill="#AFAFAF"/>
<path d="M129.706 81.2056H110.294V90.9114H129.706V81.2056Z" fill="white"/>
<path fill-rule="evenodd" clip-rule="evenodd" d="M115.764 83.3096H112.94V82.0879H115.764V83.3096Z" fill="#AFAFAF"/>
<path fill-rule="evenodd" clip-rule="evenodd" d="M121.412 83.3096H118.306V82.0879H121.412V83.3096Z" fill="#AFAFAF"/>
<path fill-rule="evenodd" clip-rule="evenodd" d="M127.058 83.3096H123.952V82.0879H127.058V83.3096Z" fill="#AFAFAF"/>
<path fill-rule="evenodd" clip-rule="evenodd" d="M115.764 86.6695H112.94V85.4478H115.764V86.6695Z" fill="#AFAFAF"/>
<path fill-rule="evenodd" clip-rule="evenodd" d="M121.412 86.6695H118.306V85.4478H121.412V86.6695Z" fill="#AFAFAF"/>
<path fill-rule="evenodd" clip-rule="evenodd" d="M127.058 86.6695H123.952V85.4478H127.058V86.6695Z" fill="#AFAFAF"/>
<path fill-rule="evenodd" clip-rule="evenodd" d="M115.764 90.0293H112.94V88.8076H115.764V90.0293Z" fill="#AFAFAF"/>
<path fill-rule="evenodd" clip-rule="evenodd" d="M121.412 90.0293H118.306V88.8076H121.412V90.0293Z" fill="#AFAFAF"/>
<path fill-rule="evenodd" clip-rule="evenodd" d="M127.058 90.0293H123.952V88.8076H127.058V90.0293Z" fill="#AFAFAF"/>
</svg>

<svg width="240" height="158" fill="none" xmlns="http://www.w3.org/2000/svg"><path fill="#F0F6FE" d="M0 .91h240v156.18H0z"/><path fill="#102DA3" d="M0 .91h240V11.5H0z"/><rect x="9.71" y="20.32" width="68.82" height="41.47" rx="2" fill="#fff"/><rect x="9.71" y="70.62" width="220.59" height="53.82" rx="2" fill="#fff"/><rect x="108.53" y="97.09" width="22.94" height="1.76" rx=".88" fill="#545454"/><rect x="82.06" y="103.27" width="75.88" height="1.76" rx=".88" fill="#AFAFAF"/><rect x="95.29" y="109.44" width="49.41" height="6.18" rx="2" fill="#0F67F5"/><rect width="26.47" height=".88" rx=".44" transform="matrix(1 0 0 -1 106.77 112.97)" fill="#fff"/><path d="M9.7 131.74c0-1.1.9-2 2-2h216.6a2 2 0 0 1 2 2v25.35H9.7v-25.35Z" fill="#fff"/><rect x="85.59" y="20.32" width="68.82" height="41.47" rx="2" fill="#fff"/><rect x="161.47" y="20.32" width="68.82" height="41.47" rx="2" fill="#fff"/><rect x="170.29" y="44.15" width="49.41" height="6.18" rx="2" fill="#0F67F5"/><rect width="26.47" height=".88" rx=".44" transform="matrix(1 0 0 -1 181.76 47.68)" fill="#fff"/><rect x="32.65" y="28.26" width="22.94" height="1.76" rx=".88" fill="#545454"/><rect x="94.41" y="29.15" width="22.94" height="1.76" rx=".88" fill="#545454"/><rect x="170.29" y="29.15" width="22.94" height="1.76" rx=".88" fill="#545454"/><rect x="19.41" y="36.21" width="49.41" height="1.76" rx=".88" fill="#AFAFAF"/><rect x="94.41" y="37.09" width="49.41" height="1.76" rx=".88" fill="#AFAFAF"/><rect x="170.29" y="37.09" width="49.41" height="1.76" rx=".88" fill="#AFAFAF"/><rect x="94.41" y="49.44" width="49.41" height="1.76" rx=".88" fill="#AFAFAF"/><rect x="29.12" y="42.38" width="29.12" height="1.76" rx=".88" fill="#AFAFAF"/><rect x="94.41" y="43.26" width="29.12" height="1.76" rx=".88" fill="#AFAFAF"/><rect x="19.41" y="49.44" width="49.41" height="6.18" rx="2" fill="#0F67F5"/><rect width="26.47" height=".88" rx=".44" transform="matrix(1 0 0 -1 30.88 52.97)" fill="#fff"/><path d="M131.47 79.44h-22.94v13.24h22.94V79.44Z" fill="#F6F6F6"/><path fill-rule="evenodd" clip-rule="evenodd" d="M108.53 79.44h23.17v13.24h-23.17V79.44Zm.55 12.69h22.07V79.99h-22.07v12.14Z" fill="#AFAFAF"/><path d="M129.7 81.2h-19.4v9.71h19.4v-9.7Z" fill="#fff"/><path fill-rule="evenodd" clip-rule="evenodd" d="M115.76 83.31h-2.82v-1.22h2.82v1.22Zm5.65 0h-3.1v-1.22h3.1v1.22Zm5.65 0h-3.1v-1.22h3.1v1.22Zm-11.3 3.36h-2.82v-1.22h2.82v1.22Zm5.65 0h-3.1v-1.22h3.1v1.22Zm5.65 0h-3.1v-1.22h3.1v1.22Zm-11.3 3.36h-2.82V88.8h2.82v1.22Zm5.65 0h-3.1V88.8h3.1v1.22Zm5.65 0h-3.1V88.8h3.1v1.22Z" fill="#AFAFAF"/></svg>
